Obsidian-SemiLight/actions/24s/object-order-raise.svg

<svg viewBox="0 0 24 24" xmlns="http://www.w3.org/2000/svg"><path d="m14 4v1h6v-1zm-2 2v1h8v-1zm-8 2v1h16v-1zm3.5 2-.21875.214844-3.28125 3.230468.71875.708985 2.28125-2.246094v4.152344 3.939453h1v-3.939453-4.152344l2.28125 2.246094.71875-.708985-3.28125-3.230468zm8.5 0v1h4v-1zm-5 2v1h9v-1zm2 2v1h7v-1zm4 2v1h3v-1zm-6 2v1h9v-1z" fill="#4d4d4d"/></svg>

<svg xmlns="http://www.w3.org/2000/svg" viewBox="0 0 24 24">
  <defs id="defs3051">
    <style type="text/css" id="current-color-scheme">
      .ColorScheme-Text {
        color:#4d4d4d;
      }
      </style>
  </defs>
 <path style="fill:currentColor;fill-opacity:1;stroke:none" 
     d="M 14 4 L 14 5 L 20 5 L 20 4 L 14 4 z M 12 6 L 12 7 L 20 7 L 20 6 L 12 6 z M 4 8 L 4 9 L 20 9 L 20 8 L 4 8 z M 7.5 10 L 7.28125 10.214844 L 4 13.445312 L 4.71875 14.154297 L 7 11.908203 L 7 16.060547 L 7 20 L 8 20 L 8 16.060547 L 8 11.908203 L 10.28125 14.154297 L 11 13.445312 L 7.71875 10.214844 L 7.5 10 z M 16 10 L 16 11 L 20 11 L 20 10 L 16 10 z M 11 12 L 11 13 L 20 13 L 20 12 L 11 12 z M 13 14 L 13 15 L 20 15 L 20 14 L 13 14 z M 17 16 L 17 17 L 20 17 L 20 16 L 17 16 z M 11 18 L 11 19 L 20 19 L 20 18 L 11 18 z "
     class="ColorScheme-Text"
     />
</svg>
